; generated by PrusaSlicer 2.7.2+win64 on 2024-05-13 at 15:44:37 UTC

; 

; external perimeters extrusion width = 0.80mm
; perimeters extrusion width = 0.80mm
; infill extrusion width = 0.80mm
; solid infill extrusion width = 0.80mm
; top infill extrusion width = 0.80mm
; support material extrusion width = 0.70mm
; first layer extrusion width = 0.80mm

; external perimeters extrusion width = 0.80mm
; perimeters extrusion width = 0.80mm
; infill extrusion width = 0.80mm
; solid infill extrusion width = 0.80mm
; top infill extrusion width = 0.80mm
; support material extrusion width = 0.70mm
; first layer extrusion width = 0.80mm

M190 S40 ; set bed temperature and wait for it to be reached
M104 S230 ; set temperature
;TYPE:Custom
G28 ; home all axes
G1 Z5 F5000 ; lift nozzle
M109 S230 ; set temperature and wait for it to be reached
G21 ; set units to millimeters
G90 ; use absolute coordinates
M82 ; use absolute distances for extrusion
G92 E0
; Filament gcode
M107
;LAYER_CHANGE
;Z:0.6
;HEIGHT:0.6
G1 E-2 F2400
G1 Z.6 F240
G1 X44.615 Y18.582 F9000
G1 Z.6 F240
G1 E0 F2400
;TYPE:Skirt/Brim
;WIDTH:0.8
G1 F1800
G1 X46.179 Y16.112 E.48952
G1 X47.006 Y15.285 E.68535
G1 X48.89 Y13.963 E1.07072
G1 X51.737 Y13.331 E1.55903
G1 X176.939 Y13.588 E22.52305
G1 X179.205 Y13.99 E22.9084
G1 X181.2 Y15.138 E23.2938
G1 X182.686 Y16.895 E23.67911
G1 X183.585 Y19.866 E24.19885
G1 X183.842 Y24.214 E24.92816
G1 X188.162 Y123.233 E41.5238
G1 X188.162 Y204.826 E55.18583
G1 X187.765 Y207.093 E55.5712
G1 X186.208 Y209.544 E56.0574
G1 X185.381 Y210.37 E56.25311
G1 X183.497 Y211.693 E56.63858
G1 X180.664 Y212.324 E57.12457
G1 X60.294 Y212.324 E77.27947
G1 X55.33 Y212.057 E78.11185
G1 X52.191 Y211.068 E78.66292
G1 X51.692 Y210.759 E78.7612
G1 X49.974 Y209.227 E79.14663
G1 X48.878 Y207.204 E79.53188
G1 X48.564 Y205.721 E79.7857
G1 X36.091 Y74.761 E101.81304
G1 X36.091 Y44.579 E106.86675
G1 X36.225 Y42.848 E107.15746
G1 X36.459 Y41.62 E107.36678
G1 X36.892 Y40.169 E107.62032
G1 X44.575 Y18.695 E111.43916
G1 E109.43916 F2400
G92 E0
G1 X44.575 Y18.695 F9000
G1 X60.294 Y205.653
G1 E2 F2400
;TYPE:Support material interface
;WIDTH:0.7
G1 F1800
G1 X99.831 Y166.116 E9.96749
G1 X99.126 Y166.013 E10.06902
G1 X59.743 Y205.396 E18.00548
G1 X58.935 Y205.396 E18.12062
G1 X98.587 Y165.744 E26.11129
G1 X98.166 Y165.357 E26.19278
G1 X58.127 Y205.396 E34.26144
G1 X57.319 Y205.396 E34.37658
G1 X97.86 Y164.855 E42.5464
G1 X97.699 Y164.209 E42.64127
G1 X61.209 Y200.698 E49.99463
G1 X61.107 Y201.131 E50.05802
G1 X60.86 Y201.457 E50.1163
G1 X60.506 Y201.662 E50.17459
G1 X60.192 Y201.716 E50.21999
G1 X56.511 Y205.396 E50.96168
G1 X55.703 Y205.396 E51.07682
G1 X59.577 Y201.523 E51.85741
G1 X59.219 Y201.073 E51.93935
G1 X55.205 Y205.087 E52.74825
G1 E50.74825 F2400
G92 E0
G1 X55.205 Y205.087 F9000
G1 X55.205 Y123.494
G1 E2 F2400
G1 F1800
G1 X56.031 Y122.667 E2.16656
G1 X56.839 Y122.667 E2.2817
G1 X55.462 Y124.045 E2.55929
G1 X55.462 Y124.853 E2.67443
G1 X57.647 Y122.667 E3.11485
G1 X58.455 Y122.667 E3.22999
G1 X55.462 Y125.661 E3.83324
G1 X55.462 Y126.468 E3.94823
G1 X59.263 Y122.667 E4.71421
G1 X60.071 Y122.667 E4.82935
G1 X55.462 Y127.276 E5.75816
G1 X55.462 Y128.084 E5.8733
G1 X60.878 Y122.667 E6.96483
G1 X61.686 Y122.667 E7.07997
G1 X55.462 Y128.892 E8.33433
G1 X55.462 Y129.7 E8.44947
G1 X62.494 Y122.667 E9.86666
G1 X63.302 Y122.667 E9.9818
G1 X55.205 Y130.765 E11.61361
G1 E9.61361 F2400
G92 E0
G1 X55.205 Y130.765 F9000
G1 X55.205 Y133.188
G1 E2 F2400
G1 F1800
G1 X59.993 Y128.4 E2.96488
G1 X59.459 Y128.126 E3.05041
G1 X55.462 Y132.123 E3.85589
G1 X55.462 Y131.315 E3.97103
G1 X59.168 Y127.609 E4.71786
G1 X59.188 Y127.077 E4.79372
G1 X59.454 Y126.641 E4.8665
G1 X59.896 Y126.386 E4.93921
G1 X60.404 Y126.373 E5.01162
G1 X64.11 Y122.667 E5.75845
G1 X64.918 Y122.667 E5.87359
G1 X60.92 Y126.665 E6.67927
G1 X61.193 Y127.2 E6.76486
G1 X65.726 Y122.667 E7.67835
G1 X66.533 Y122.667 E7.79334
G1 X55.462 Y133.739 E10.02447
G1 X55.462 Y134.547 E10.13961
G1 X67.341 Y122.667 E12.53357
G1 X68.149 Y122.667 E12.64871
G1 X55.462 Y135.355 E15.20549
G1 X55.462 Y136.163 E15.32063
G1 X68.957 Y122.667 E18.04024
G1 X69.765 Y122.667 E18.15538
G1 X55.462 Y136.97 E21.03772
G1 X55.462 Y137.778 E21.15286
G1 X70.573 Y122.667 E24.19803
G1 X71.38 Y122.667 E24.31302
G1 X55.462 Y138.586 E27.52092
G1 X55.462 Y139.394 E27.63606
G1 X72.188 Y122.667 E31.00678
G1 X72.996 Y122.667 E31.12192
G1 X55.462 Y140.202 E34.65547
G1 X55.462 Y141.01 E34.77061
G1 X73.804 Y122.667 E38.46699
G1 X74.612 Y122.667 E38.58213
G1 X55.462 Y141.818 E42.44134
G1 X55.462 Y142.625 E42.55633
G1 X75.42 Y122.667 E46.57827
G1 X76.228 Y122.667 E46.69341
G1 X55.462 Y143.433 E50.87817
G1 X55.462 Y144.241 E50.99331
G1 X77.035 Y122.667 E55.3408
G1 X77.843 Y122.667 E55.45594
G1 X55.462 Y145.049 E59.96626
G1 X55.462 Y145.857 E60.0814
G1 X78.651 Y122.667 E64.75455
G1 X79.459 Y122.667 E64.86969
G1 X55.462 Y146.665 E69.70566
G1 X55.462 Y147.473 E69.8208
G1 X80.267 Y122.667 E74.8196
G1 X81.075 Y122.667 E74.93474
G1 X55.462 Y148.28 E80.09627
G1 X55.462 Y149.088 E80.21141
G1 X81.883 Y122.667 E85.53577
G1 X82.69 Y122.667 E85.65076
G1 X55.462 Y149.896 E91.13785
G1 X55.462 Y150.704 E91.25299
G1 X83.498 Y122.667 E96.9029
G1 X84.306 Y122.667 E97.01804
G1 X55.462 Y151.512 E102.83078
G1 X55.462 Y152.32 E102.94592
G1 X85.114 Y122.667 E108.92149
G1 X85.922 Y122.667 E109.03663
G1 X55.462 Y153.128 E115.17503
G1 X55.462 Y153.935 E115.29002
G1 X86.73 Y122.667 E121.59115
G1 X87.538 Y122.667 E121.70629
G1 X55.462 Y154.743 E128.17024
G1 X55.462 Y155.551 E128.28538
G1 X88.345 Y122.667 E134.91206
G1 X89.153 Y122.667 E135.0272
G1 X55.462 Y156.359 E141.81671
G1 X55.462 Y157.167 E141.93185
G1 X89.961 Y122.667 E148.88419
G1 X90.769 Y122.667 E148.99933
G1 X55.462 Y157.975 E156.1145
G1 X55.462 Y158.782 E156.22949
G1 X91.577 Y122.667 E163.50738
G1 X92.385 Y122.667 E163.62252
G1 X55.462 Y159.59 E171.06324
G1 X55.462 Y160.398 E171.17838
G1 X93.193 Y122.667 E178.78193
G1 X94 Y122.667 E178.89692
G1 X55.462 Y161.206 E186.6632
G1 X55.462 Y162.014 E186.77834
G1 X94.808 Y122.667 E194.70744
G1 X95.616 Y122.667 E194.82258
G1 X55.462 Y162.822 E202.91451
G1 X55.462 Y163.63 E203.02965
G1 X96.424 Y122.667 E211.28441
G1 X97.232 Y122.667 E211.39955
G1 X55.462 Y164.437 E219.81704
G1 X55.462 Y165.245 E219.93218
G1 X98.04 Y122.667 E228.5125
G1 X98.847 Y122.667 E228.62749
G1 X55.462 Y166.053 E237.37053
G1 X55.462 Y166.861 E237.48567
G1 X99.655 Y122.667 E246.39154
G1 X100.463 Y122.667 E246.50668
G1 X55.462 Y167.669 E255.57538
G1 X55.462 Y168.477 E255.69052
G1 X101.271 Y122.667 E264.92205
G1 X102.079 Y122.667 E265.03719
G1 X55.462 Y169.285 E274.43155
G1 X55.462 Y170.092 E274.54654
G1 X102.887 Y122.667 E284.10362
G1 X103.695 Y122.667 E284.21876
G1 X55.462 Y170.9 E293.93867
G1 X55.462 Y171.708 E294.05381
G1 X104.502 Y122.667 E303.93645
G1 X105.31 Y122.667 E304.05159
G1 X55.462 Y172.516 E314.09706
G1 X55.462 Y173.324 E314.2122
G1 X106.118 Y122.667 E324.4205
G1 X106.926 Y122.667 E324.53564
G1 X55.462 Y174.132 E334.90676
G1 X55.462 Y174.94 E335.0219
G1 X107.734 Y122.667 E345.55585
G1 X108.542 Y122.667 E345.67099
G1 X55.462 Y175.747 E356.36767
G1 X55.462 Y176.555 E356.48281
G1 X109.35 Y122.667 E367.34232
G1 X110.157 Y122.667 E367.45731
G1 X55.462 Y177.363 E378.47954
G1 X55.462 Y178.171 E378.59468
G1 X110.965 Y122.667 E389.77974
G1 X111.773 Y122.667 E389.89488
G1 X55.462 Y178.979 E401.24277
G1 X55.462 Y179.787 E401.35791
G1 X112.581 Y122.667 E412.86863
G1 X113.389 Y122.667 E412.98377
G1 X55.462 Y180.594 E424.65722
G1 X55.462 Y181.402 E424.77236
G1 X114.197 Y122.667 E436.60863
G1 X115.005 Y122.667 E436.72377
G1 X55.462 Y182.21 E448.72287
G1 X55.462 Y183.018 E448.83801
G1 X115.812 Y122.667 E460.99984
G1 X116.62 Y122.667 E461.11498
G1 X55.462 Y183.826 E473.43964
G1 X55.462 Y184.634 E473.55478
G1 X117.428 Y122.667 E486.04227
G1 X118.236 Y122.667 E486.15741
G1 X55.462 Y185.442 E498.80772
G1 X55.462 Y186.249 E498.92271
G1 X119.044 Y122.667 E511.73575
G1 X119.852 Y122.667 E511.85089
G1 X55.462 Y187.057 E524.82676
G1 X55.462 Y187.865 E524.9419
G1 X120.66 Y122.667 E538.0806
G1 X121.467 Y122.667 E538.19559
G1 X55.462 Y188.673 E551.49701
G1 X55.462 Y189.481 E551.61215
G1 X122.275 Y122.667 E565.0764
G1 X123.083 Y122.667 E565.19154
G1 X55.462 Y190.289 E578.81862
G1 X55.462 Y191.097 E578.93376
G1 X123.891 Y122.667 E592.72367
G1 X124.699 Y122.667 E592.83881
G1 X55.462 Y191.904 E606.79145
G1 X55.462 Y192.712 E606.90659
G1 X125.507 Y122.667 E621.02205
G1 X126.314 Y122.667 E621.13704
G1 X55.462 Y193.52 E635.41523
G1 X55.462 Y194.328 E635.53037
G1 X127.122 Y122.667 E649.97139
G1 X127.93 Y122.667 E650.08653
G1 X55.462 Y195.136 E664.69038
G1 X55.462 Y195.944 E664.80552
G1 X128.738 Y122.667 E679.5722
G1 X129.546 Y122.667 E679.68734
G1 X55.462 Y196.752 E694.61684
G1 X55.462 Y197.559 E694.73183
G1 X130.354 Y122.667 E709.82406
G1 X131.162 Y122.667 E709.9392
G1 X55.462 Y198.367 E725.19426
G1 X55.462 Y199.175 E725.3094
G1 X131.969 Y122.667 E740.72719
G1 X132.777 Y122.667 E740.84233
G1 X55.462 Y199.983 E756.42295
G1 X55.462 Y200.791 E756.53809
G1 X133.585 Y122.667 E772.28153
G1 X134.393 Y122.667 E772.39667
G1 X55.462 Y201.599 E788.30294
G1 X55.462 Y202.407 E788.41808
G1 X135.201 Y122.667 E804.48718
G1 X136.009 Y122.667 E804.60232
G1 X55.462 Y203.214 E820.83415
G1 X55.462 Y204.022 E820.94929
G1 X136.817 Y122.667 E837.34395
G1 X137.624 Y122.667 E837.45894
G1 X60.566 Y199.725 E852.98766
G1 X61.017 Y200.082 E853.06962
G1 X138.432 Y122.667 E868.67029
G1 X139.24 Y122.667 E868.78543
G1 X99.953 Y161.954 E876.70254
G1 X100.599 Y162.116 E876.79744
G1 X140.048 Y122.667 E884.7472
G1 X140.856 Y122.667 E884.86234
G1 X101.101 Y162.422 E892.87377
G1 X101.488 Y162.842 E892.95515
G1 X141.664 Y122.667 E901.05131
G1 X142.472 Y122.667 E901.16645
G1 X101.757 Y163.382 E909.37133
G1 X101.86 Y164.086 E909.47272
G1 X143.279 Y122.667 E917.81947
G1 X144.087 Y122.667 E917.93461
G1 X61.358 Y205.396 E934.60615
G1 X62.166 Y205.396 E934.72129
G1 X144.895 Y122.667 E951.39283
G1 X145.703 Y122.667 E951.50797
G1 X62.974 Y205.396 E968.17951
G1 X63.782 Y205.396 E968.29465
G1 X146.511 Y122.667 E984.96619
G1 X147.319 Y122.667 E985.08133
G1 X64.59 Y205.396 E1001.75287
G1 X65.398 Y205.396 E1001.86801
G1 X148.126 Y122.667 E1018.53945
G1 X148.934 Y122.667 E1018.65459
G1 X66.206 Y205.396 E1035.32603
G1 X67.013 Y205.396 E1035.44102
G1 X149.742 Y122.667 E1052.11256
G1 X150.55 Y122.667 E1052.2277
G1 X67.821 Y205.396 E1068.89924
G1 X68.629 Y205.396 E1069.01438
G1 X151.358 Y122.667 E1085.68592
G1 X152.166 Y122.667 E1085.80106
G1 X69.437 Y205.396 E1102.4726
G1 X70.245 Y205.396 E1102.58774
G1 X152.974 Y122.667 E1119.25928
G1 X153.781 Y122.667 E1119.37427
G1 X71.053 Y205.396 E1136.04571
G1 X71.861 Y205.396 E1136.16085
G1 X154.589 Y122.667 E1152.83229
G1 X155.397 Y122.667 E1152.94743
G1 X72.668 Y205.396 E1169.61897
G1 X73.476 Y205.396 E1169.73411
G1 X156.205 Y122.667 E1186.40565
G1 X157.013 Y122.667 E1186.52079
G1 X74.284 Y205.396 E1203.19233
G1 X75.092 Y205.396 E1203.30747
G1 X157.821 Y122.667 E1219.97901
G1 X158.629 Y122.667 E1220.09415
G1 X75.9 Y205.396 E1236.76569
G1 X76.708 Y205.396 E1236.88083
G1 X159.436 Y122.667 E1253.55227
G1 X160.244 Y122.667 E1253.66741
G1 X77.515 Y205.396 E1270.33895
G1 X78.323 Y205.396 E1270.45409
G1 X161.052 Y122.667 E1287.12563
G1 X161.86 Y122.667 E1287.24077
G1 X79.131 Y205.396 E1303.91231
G1 X79.939 Y205.396 E1304.02745
G1 X162.668 Y122.667 E1320.69899
G1 X163.476 Y122.667 E1320.81413
G1 X80.747 Y205.396 E1337.48567
G1 X81.555 Y205.396 E1337.60081
G1 X164.284 Y122.667 E1354.27235
G1 X165.091 Y122.667 E1354.38734
G1 X82.363 Y205.396 E1371.05878
G1 X83.17 Y205.396 E1371.17377
G1 X165.899 Y122.667 E1387.84531
G1 X166.707 Y122.667 E1387.96045
G1 X83.978 Y205.396 E1404.63199
G1 X84.786 Y205.396 E1404.74713
G1 X167.515 Y122.667 E1421.41867
G1 X168.323 Y122.667 E1421.53381
G1 X85.594 Y205.396 E1438.20535
G1 X86.402 Y205.396 E1438.32049
G1 X169.131 Y122.667 E1454.99203
G1 X169.939 Y122.667 E1455.10717
G1 X87.21 Y205.396 E1471.77871
G1 X88.018 Y205.396 E1471.89385
G1 X170.746 Y122.667 E1488.56529
G1 X171.554 Y122.667 E1488.68043
G1 X88.825 Y205.396 E1505.35197
G1 X89.633 Y205.396 E1505.46711
G1 X172.362 Y122.667 E1522.13865
G1 X173.17 Y122.667 E1522.25379
G1 X90.441 Y205.396 E1538.92533
G1 X91.249 Y205.396 E1539.04047
G1 X173.978 Y122.667 E1555.71201
G1 X174.786 Y122.667 E1555.82715
G1 X92.057 Y205.396 E1572.49869
G1 X92.865 Y205.396 E1572.61383
G1 X175.593 Y122.667 E1589.28527
G1 X176.401 Y122.667 E1589.40041
G1 X93.673 Y205.396 E1606.07185
G1 X94.48 Y205.396 E1606.18684
G1 X177.209 Y122.667 E1622.85838
G1 X178.017 Y122.667 E1622.97352
G1 X95.288 Y205.396 E1639.64506
G1 X96.096 Y205.396 E1639.7602
G1 X178.825 Y122.667 E1656.43174
G1 X179.633 Y122.667 E1656.54688
G1 X96.647 Y205.653 E1673.27021
G1 E1671.27021 F2400
G92 E0
G1 X96.647 Y205.653 F9000
G1 X99.07 Y205.653
G1 E2 F2400
G1 F1800
G1 X176.385 Y128.339 E17.58041
G1 X175.934 Y127.981 E17.66246
G1 X98.52 Y205.396 E33.26303
G1 X97.712 Y205.396 E33.37817
G1 X175.742 Y127.365 E49.10287
G1 X175.823 Y126.98 E49.15893
G1 X176.054 Y126.641 E49.21739
G1 X176.398 Y126.419 E49.27573
G1 X176.759 Y126.349 E49.32813
G1 X180.441 Y122.667 E50.07013
G1 X181.248 Y122.667 E50.18512
G1 X177.376 Y126.54 E50.96551
G1 X177.732 Y126.991 E51.04738
G1 X181.49 Y123.233 E51.80469
G1 X181.49 Y124.041 E51.91983
G1 X100.135 Y205.396 E68.31449
G1 X100.943 Y205.396 E68.42963
G1 X181.49 Y124.849 E84.66146
G1 X181.49 Y125.657 E84.7766
G1 X101.751 Y205.396 E100.8456
G1 X102.559 Y205.396 E100.96074
G1 X181.49 Y126.465 E116.86691
G1 X181.49 Y127.272 E116.9819
G1 X103.367 Y205.396 E132.72534
G1 X104.175 Y205.396 E132.84048
G1 X181.49 Y128.08 E148.4211
G1 X181.49 Y128.888 E148.53624
G1 X104.982 Y205.396 E163.95413
G1 X105.79 Y205.396 E164.06927
G1 X181.49 Y129.696 E179.32433
G1 X181.49 Y130.504 E179.43947
G1 X106.598 Y205.396 E194.5317
G1 X107.406 Y205.396 E194.64684
G1 X181.49 Y131.312 E209.57624
G1 X181.49 Y132.12 E209.69138
G1 X108.214 Y205.396 E224.45796
G1 X109.022 Y205.396 E224.5731
G1 X181.49 Y132.927 E239.17695
G1 X181.49 Y133.735 E239.29209
G1 X109.83 Y205.396 E253.73311
G1 X110.637 Y205.396 E253.8481
G1 X181.49 Y134.543 E268.12639
G1 X181.49 Y135.351 E268.24153
G1 X111.445 Y205.396 E282.35699
G1 X112.253 Y205.396 E282.47213
G1 X181.49 Y136.159 E296.42477
G1 X181.49 Y136.967 E296.53991
G1 X113.061 Y205.396 E310.32972
G1 X113.869 Y205.396 E310.44486
G1 X181.49 Y137.775 E324.07184
G1 X181.49 Y138.582 E324.18683
G1 X114.677 Y205.396 E337.65108
G1 X115.485 Y205.396 E337.76622
G1 X181.49 Y139.39 E351.06764
G1 X181.49 Y140.198 E351.18278
G1 X116.292 Y205.396 E364.32148
G1 X117.1 Y205.396 E364.43662
G1 X181.49 Y141.006 E377.41249
G1 X181.49 Y141.814 E377.52763
G1 X117.908 Y205.396 E390.34067
G1 X118.716 Y205.396 E390.45581
G1 X181.49 Y142.622 E403.10602
G1 X181.49 Y143.43 E403.22116
G1 X119.524 Y205.396 E415.70855
G1 X120.332 Y205.396 E415.82369
G1 X181.49 Y144.237 E428.14835
G1 X181.49 Y145.045 E428.26349
G1 X121.14 Y205.396 E440.42532
G1 X121.947 Y205.396 E440.54031
G1 X181.49 Y145.853 E452.53941
G1 X181.49 Y146.661 E452.65455
G1 X122.755 Y205.396 E464.49082
G1 X123.563 Y205.396 E464.60596
G1 X181.49 Y147.469 E476.27941
G1 X181.49 Y148.277 E476.39455
G1 X124.371 Y205.396 E487.90517
G1 X125.179 Y205.396 E488.02031
G1 X181.49 Y149.084 E499.3682
G1 X181.49 Y149.892 E499.48334
G1 X125.987 Y205.396 E510.6684
G1 X126.794 Y205.396 E510.78339
G1 X181.49 Y150.7 E521.80573
G1 X181.49 Y151.508 E521.92087
G1 X127.602 Y205.396 E532.78038
G1 X128.41 Y205.396 E532.89552
G1 X181.49 Y152.316 E543.5922
G1 X181.49 Y153.124 E543.70734
G1 X129.218 Y205.396 E554.24119
G1 X130.026 Y205.396 E554.35633
G1 X181.49 Y153.932 E564.72735
G1 X181.49 Y154.739 E564.84234
G1 X130.834 Y205.396 E575.05064
G1 X131.642 Y205.396 E575.16578
G1 X181.49 Y155.547 E585.21125
G1 X181.49 Y156.355 E585.32639
G1 X132.449 Y205.396 E595.20913
G1 X133.257 Y205.396 E595.32427
G1 X181.49 Y157.163 E605.04418
G1 X181.49 Y157.971 E605.15932
G1 X134.065 Y205.396 E614.7164
G1 X134.873 Y205.396 E614.83154
G1 X181.49 Y158.779 E624.2258
G1 X181.49 Y159.587 E624.34094
